assets/fox/mono.svg

<svg viewBox="0 0 24 24" xmlns="http://www.w3.org/2000/svg"><path d="m3.069 9.7h3.42l-.189-2.768h-6.3v10.136h3.069v-3.268h2.789v-2.778h-2.789zm20.931-2.768h-3.291l-1.229 2.168-1.231-2.168h-3.292l2.871 5.076-2.871 5.06h3.308l1.215-2.142 1.213 2.142h3.307l-2.871-5.06zm-12.592 0a5.067 5.067 0 1 0 5.067 5.068 5.067 5.067 0 0 0 -5.067-5.065zm.888 7.146a.867.867 0 0 1 -.873.847.847.847 0 0 1 -.837-.858v-4.148a.882.882 0 0 1 .837-.9.913.913 0 0 1 .873.9z"/></svg>

<svg xmlns="http://www.w3.org/2000/svg" viewBox="0 0 24 24"><path d="M3.069 9.7h3.42L6.3 6.932H0v10.136h3.069V13.8h2.789v-2.778H3.069zM24 6.932h-3.291L19.48 9.1l-1.231-2.168h-3.292l2.871 5.076-2.871 5.06h3.308l1.215-2.142 1.213 2.142H24l-2.871-5.06zm-12.592 0A5.067 5.067 0 1 0 16.475 12a5.067 5.067 0 0 0-5.067-5.065zm.888 7.146a.867.867 0 0 1-.873.847.847.847 0 0 1-.837-.858V9.919a.88.88 0 0 1 .837-.9.913.913 0 0 1 .873.9z"/></svg>
